icons/rss-fill.svg

<svg viewBox="0 0 24 24" fill="currentColor" xmlns="http://www.w3.org/2000/svg">
    <path d="M3 3C12.9411 3 21 11.0589 21 21H18C18 12.7157 11.2843 6 3 6V3ZM3 10C9.07513 10 14 14.9249 14 21H11C11 16.5817 7.41828 13 3 13V10ZM3 17C5.20914 17 7 18.7909 7 21H3V17Z"/>
</svg>

<svg xmlns="http://www.w3.org/2000/svg" viewBox="0 0 24 24">
    <g>
        <path fill="none" d="M0 0h24v24H0z"/>
        <path d="M3 3c9.941 0 18 8.059 18 18h-3c0-8.284-6.716-15-15-15V3zm0 7c6.075 0 11 4.925 11 11h-3a8 8 0 0 0-8-8v-3zm0 7a4 4 0 0 1 4 4H3v-4z"/>
    </g>
</svg>
